src/lib/packages/icons/src/assets/line/hand-holding-user.svg

<svg width="24" height="24" viewBox="0 0 24 24" fill="none" xmlns="http://www.w3.org/2000/svg">
<path d="M20.692 15.543C20.031 15.169 19.2449 15.1769 18.5909 15.5699L16.621 16.752C16.312 15.878 15.477 15.25 14.499 15.25H8.99902C8.35802 15.25 7.77501 15.48 7.30701 15.849C6.98601 15.485 6.52202 15.25 5.99902 15.25H3.99902C3.03402 15.25 2.24902 16.035 2.24902 17V21C2.24902 21.965 3.03402 22.75 3.99902 22.75H5.99902C6.52102 22.75 6.98601 22.515 7.30701 22.151C7.77501 22.52 8.35802 22.75 8.99902 22.75H14.5959C15.6709 22.75 16.725 22.38 17.564 21.709L20.967 18.986C21.464 18.588 21.749 17.994 21.749 17.358C21.75 16.597 21.354 15.919 20.692 15.543ZM6.25 21C6.25 21.138 6.138 21.25 6 21.25H4C3.862 21.25 3.75 21.138 3.75 21V17C3.75 16.862 3.862 16.75 4 16.75H6C6.138 16.75 6.25 16.862 6.25 17V18V20V21ZM20.03 17.8149L16.627 20.538C16.054 20.997 15.332 21.25 14.597 21.25H9C8.311 21.25 7.75 20.689 7.75 20V18C7.75 17.311 8.311 16.75 9 16.75H14.5C14.913 16.75 15.25 17.086 15.25 17.5C15.25 17.914 14.913 18.25 14.5 18.25H11C10.586 18.25 10.25 18.586 10.25 19C10.25 19.414 10.586 19.75 11 19.75H14.5C15.343 19.75 16.079 19.2839 16.465 18.5959L19.363 16.8571C19.629 16.6971 19.865 16.799 19.953 16.85C20.042 16.9 20.25 17.051 20.25 17.359C20.25 17.537 20.17 17.7039 20.03 17.8149ZM12.005 6.25C13.384 6.25 14.505 5.128 14.505 3.75C14.505 2.372 13.384 1.25 12.005 1.25C10.626 1.25 9.505 2.372 9.505 3.75C9.505 5.128 10.626 6.25 12.005 6.25ZM12.005 2.75C12.557 2.75 13.005 3.199 13.005 3.75C13.005 4.301 12.557 4.75 12.005 4.75C11.453 4.75 11.005 4.301 11.005 3.75C11.005 3.199 11.453 2.75 12.005 2.75ZM10.001 12.75H13.999C15.408 12.75 16.25 11.912 16.25 10.509C16.25 8.88603 15.245 7.25 13 7.25H11C8.755 7.25 7.75 8.88703 7.75 10.509C7.75 11.912 8.59198 12.75 10.001 12.75ZM11 8.75H13C14.522 8.75 14.75 9.85203 14.75 10.509C14.75 11.084 14.582 11.25 13.999 11.25H10.001C9.41798 11.25 9.25 11.084 9.25 10.509C9.25 9.85203 9.478 8.75 11 8.75Z" fill="currentColor"/>
</svg>

<svg xmlns="http://www.w3.org/2000/svg" width="24" height="24" fill="none"><path fill="currentColor" d="M20.692 15.543a2.063 2.063 0 0 0-2.101.027l-1.97 1.182a2.254 2.254 0 0 0-2.122-1.502h-5.5c-.641 0-1.224.23-1.692.599a1.74 1.74 0 0 0-1.308-.599h-2c-.965 0-1.75.785-1.75 1.75v4c0 .965.785 1.75 1.75 1.75h2c.522 0 .987-.235 1.308-.599a2.723 2.723 0 0 0 1.692.599h5.597a4.77 4.77 0 0 0 2.968-1.041l3.403-2.723c.497-.398.782-.992.782-1.628a2.062 2.062 0 0 0-1.057-1.815ZM6.25 21a.25.25 0 0 1-.25.25H4a.25.25 0 0 1-.25-.25v-4a.25.25 0 0 1 .25-.25h2a.25.25 0 0 1 .25.25v4Zm13.78-3.185-3.403 2.723a3.26 3.26 0 0 1-2.03.712H9c-.689 0-1.25-.561-1.25-1.25v-2c0-.689.561-1.25 1.25-1.25h5.5a.75.75 0 0 1 0 1.5H11a.75.75 0 0 0 0 1.5h3.5c.843 0 1.579-.466 1.965-1.154l2.898-1.739a.57.57 0 0 1 .59-.007c.089.05.297.201.297.509a.58.58 0 0 1-.22.456ZM12.005 6.25c1.379 0 2.5-1.122 2.5-2.5s-1.121-2.5-2.5-2.5a2.503 2.503 0 0 0-2.5 2.5c0 1.378 1.121 2.5 2.5 2.5Zm0-3.5a1.001 1.001 0 0 1 0 2 1.001 1.001 0 0 1 0-2Zm-2.004 10h3.998c1.409 0 2.251-.838 2.251-2.241 0-1.623-1.005-3.259-3.25-3.259h-2c-2.245 0-3.25 1.637-3.25 3.259 0 1.403.842 2.241 2.251 2.241Zm.999-4h2c1.522 0 1.75 1.102 1.75 1.759 0 .575-.168.741-.751.741h-3.998c-.583 0-.751-.166-.751-.741 0-.657.228-1.759 1.75-1.759Z"/></svg>
